symbolic/22x22/apps/mono.svg

<svg xmlns="http://www.w3.org/2000/svg" width="22" height="22" viewBox="0 0 44 44"><g transform="translate(-2 -2)"><rect style="opacity:.2" width="40" height="40" x="-45" y="-44" rx="2" ry="2" transform="matrix(0 -1 -1 0 0 0)"/><rect style="fill:#4a5579" width="40" height="40" x="-44" y="-44" rx="2" ry="2" transform="matrix(0 -1 -1 0 0 0)"/><path style="opacity:.1;fill:#fff" d="M6 4c-1.108 0-2 .892-2 2v1c0-1.108.892-2 2-2h36c1.108 0 2 .892 2 2V6c0-1.108-.892-2-2-2z"/><path style="opacity:.2" d="M14.035 36.957c0-.149 5.009-6.176 5.116-6.152.059.016 2.3.965 4.972 2.114 4.569 1.962 4.874 2.079 4.995 1.915.188-.254.831-1.599 1.171-2.45l.289-.724-.484-.266c-.69-.375-1.702-1.216-2.335-1.939-.578-.66-1.621-2.251-1.621-2.474 0-.074.332.262.738.746 1.137 1.353 3.757 3.479 3.921 3.178.195-.359.324-1.415.316-2.643-.008-1.497-.203-2.661-.719-4.268l-.289-.903-1.421-.445c-.785-.25-1.57-.492-1.746-.551-.617-.195-.23-.184.668.02 1.078.242 2.175.441 2.851.527.602.074.73-.043.793-.703.082-.849-.461-3.193-1.016-4.355-.219-.465-.32-.57-.761-.771-1.465-.684-6.059-1.309-8.009-1.105-.844.086-1.707.293-1.979.465-.074.059.468.191 1.401.363.84.156 1.453.293 1.363.317-.102.016-1.414-.13-2.94-.325-2.672-.344-2.77-.352-2.965-.18-.391.352-.945 1.31-1.063 1.825-.109.497-.102.556.145 1.06.422.863 1.211 1.493 2.996 2.396.844.439 1.515.798 1.491.825-.027.023-.749-.246-1.601-.603l-1.559-.645-2.284.641c-1.254.349-2.324.638-2.375.638-.063 0-.094-1.517-.094-4.089 0-3.936.008-4.1.203-4.502.117-.246.348-.509.555-.634l.359-.223 10.459-.031c5.749-.016 10.697 0 10.974.031.641.078 1.219.548 1.371 1.114.066.246.09 3.971.074 11.057l-.027 10.674-.223.355a1.671 1.671 0 0 1-.633.559c-.41.2-.492.204-10.735.204-5.679 0-10.33-.035-10.33-.074m-.02.02"/><path style="fill:#fff" d="M14.035 35.957c0-.149 5.009-6.176 5.116-6.152.059.016 2.3.965 4.972 2.114 4.569 1.962 4.874 2.079 4.995 1.915.188-.254.831-1.599 1.171-2.45l.289-.724-.484-.266c-.69-.375-1.702-1.216-2.335-1.939-.578-.66-1.621-2.251-1.621-2.474 0-.074.332.262.738.746 1.137 1.353 3.757 3.479 3.921 3.178.195-.359.324-1.415.316-2.643-.008-1.497-.203-2.661-.719-4.268l-.289-.903-1.421-.445c-.785-.25-1.57-.492-1.746-.551-.617-.195-.23-.184.668.02 1.078.242 2.175.441 2.851.527.602.074.73-.043.793-.703.082-.849-.461-3.193-1.016-4.355-.219-.465-.32-.57-.761-.771-1.465-.684-6.059-1.309-8.009-1.105-.844.086-1.707.293-1.979.465-.074.059.468.191 1.401.363.84.156 1.453.293 1.363.317-.102.016-1.414-.13-2.94-.325-2.672-.344-2.77-.352-2.965-.18-.391.352-.945 1.31-1.063 1.825-.109.497-.102.556.145 1.06.422.863 1.211 1.493 2.996 2.396.844.439 1.515.798 1.491.825-.027.023-.749-.246-1.601-.603l-1.559-.645-2.284.641c-1.254.349-2.324.638-2.375.638-.063 0-.094-1.517-.094-4.089 0-3.936.008-4.1.203-4.502.117-.246.348-.509.555-.634l.359-.223 10.459-.031c5.749-.016 10.697 0 10.974.031.641.078 1.219.548 1.371 1.114.066.246.09 3.971.074 11.057l-.027 10.674-.223.355a1.671 1.671 0 0 1-.633.559c-.41.2-.492.204-10.735.204-5.679 0-10.33-.035-10.33-.074m-.02.02"/></g></svg>

<svg xmlns="http://www.w3.org/2000/svg" width="22" height="22" version="1.1" viewBox="0 0 44 44">
 <g transform="translate(-2,-2)">
  <rect style="opacity:0.2" width="40" height="40" x="-45" y="-44" rx="2" ry="2" transform="matrix(0,-1,-1,0,0,0)"/>
  <rect style="fill:#4a5579" width="40" height="40" x="-44" y="-44" rx="2" ry="2" transform="matrix(0,-1,-1,0,0,0)"/>
  <path style="opacity:0.1;fill:#ffffff" d="M 6,4 C 4.892,4 4,4.892 4,6 V 7 C 4,5.892 4.892,5 6,5 H 42 C 43.108,5 44,5.892 44,7 V 6 C 44,4.892 43.108,4 42,4 Z"/>
  <path style="opacity:0.2" d="M 14.035,36.957 C 14.035,36.808 19.044,30.781 19.151,30.805 19.21,30.821 21.451,31.77 24.123,32.919 28.692,34.881 28.997,34.998 29.118,34.834 29.306,34.58 29.949,33.235 30.289,32.384 L 30.578,31.66 30.094,31.394 C 29.404,31.019 28.392,30.178 27.759,29.455 27.181,28.795 26.138,27.204 26.138,26.981 26.138,26.907 26.47,27.243 26.876,27.727 28.013,29.08 30.633,31.206 30.797,30.905 30.992,30.546 31.121,29.49 31.113,28.262 31.105,26.765 30.91,25.601 30.394,23.994 L 30.105,23.091 28.684,22.646 C 27.899,22.396 27.114,22.154 26.938,22.095 26.321,21.9 26.708,21.911 27.606,22.115 28.684,22.357 29.781,22.556 30.457,22.642 31.059,22.716 31.187,22.599 31.25,21.939 31.332,21.09 30.789,18.746 30.234,17.584 30.015,17.119 29.914,17.014 29.473,16.813 28.008,16.129 23.414,15.504 21.464,15.708 20.62,15.794 19.757,16.001 19.485,16.173 19.411,16.232 19.953,16.364 20.886,16.536 21.726,16.692 22.339,16.829 22.249,16.853 22.147,16.869 20.835,16.723 19.309,16.528 16.637,16.184 16.539,16.176 16.344,16.348 15.953,16.7 15.399,17.658 15.281,18.173 15.172,18.67 15.179,18.729 15.426,19.233 15.848,20.096 16.637,20.726 18.422,21.629 19.266,22.068 19.937,22.427 19.913,22.454 19.886,22.477 19.164,22.208 18.312,21.851 L 16.753,21.206 14.469,21.847 C 13.215,22.196 12.145,22.485 12.094,22.485 12.031,22.485 12,20.968 12,18.396 12,14.46 12.008,14.296 12.203,13.894 12.32,13.648 12.551,13.385 12.758,13.26 L 13.117,13.037 23.576,13.006 C 29.325,12.99 34.273,13.006 34.55,13.037 35.191,13.115 35.769,13.585 35.921,14.151 35.987,14.397 36.011,18.122 35.995,25.208 L 35.968,35.882 35.745,36.237 C 35.616,36.448 35.354,36.678 35.112,36.796 34.702,36.996 34.62,37 24.377,37 18.698,37 14.047,36.965 14.047,36.926 M 14.027,36.946"/>
  <path style="fill:#ffffff" d="M 14.035,35.957 C 14.035,35.808 19.044,29.781 19.151,29.805 19.21,29.821 21.451,30.77 24.123,31.919 28.692,33.881 28.997,33.998 29.118,33.834 29.306,33.58 29.949,32.235 30.289,31.384 L 30.578,30.66 30.094,30.394 C 29.404,30.019 28.392,29.178 27.759,28.455 27.181,27.795 26.138,26.204 26.138,25.981 26.138,25.907 26.47,26.243 26.876,26.727 28.013,28.08 30.633,30.206 30.797,29.905 30.992,29.546 31.121,28.49 31.113,27.262 31.105,25.765 30.91,24.601 30.394,22.994 L 30.105,22.091 28.684,21.646 C 27.899,21.396 27.114,21.154 26.938,21.095 26.321,20.9 26.708,20.911 27.606,21.115 28.684,21.357 29.781,21.556 30.457,21.642 31.059,21.716 31.187,21.599 31.25,20.939 31.332,20.09 30.789,17.746 30.234,16.584 30.015,16.119 29.914,16.014 29.473,15.813 28.008,15.129 23.414,14.504 21.464,14.708 20.62,14.794 19.757,15.001 19.485,15.173 19.411,15.232 19.953,15.364 20.886,15.536 21.726,15.692 22.339,15.829 22.249,15.853 22.147,15.869 20.835,15.723 19.309,15.528 16.637,15.184 16.539,15.176 16.344,15.348 15.953,15.7 15.399,16.658 15.281,17.173 15.172,17.67 15.179,17.729 15.426,18.233 15.848,19.096 16.637,19.726 18.422,20.629 19.266,21.068 19.937,21.427 19.913,21.454 19.886,21.477 19.164,21.208 18.312,20.851 L 16.753,20.206 14.469,20.847 C 13.215,21.196 12.145,21.485 12.094,21.485 12.031,21.485 12,19.968 12,17.396 12,13.46 12.008,13.296 12.203,12.894 12.32,12.648 12.551,12.385 12.758,12.26 L 13.117,12.037 23.576,12.006 C 29.325,11.99 34.273,12.006 34.55,12.037 35.191,12.115 35.769,12.585 35.921,13.151 35.987,13.397 36.011,17.122 35.995,24.208 L 35.968,34.882 35.745,35.237 C 35.616,35.448 35.354,35.678 35.112,35.796 34.702,35.996 34.62,36 24.377,36 18.698,36 14.047,35.965 14.047,35.926 M 14.027,35.946"/>
 </g>
</svg>
